apps/scalable/polari.svg

<svg xmlns="http://www.w3.org/2000/svg" style="isolation:isolate" width="256" height="256"><defs><filter id="a" width="270.648" height="254.338" x="-7.32" y="2.95" filterUnits="userSpaceOnUse"><feGaussianBlur xmlns="http://www.w3.org/2000/svg" in="SourceGraphic" stdDeviation="4.294"/><feOffset xmlns="http://www.w3.org/2000/svg" dy="4" result="pf_100_offsetBlur"/><feFlood xmlns="http://www.w3.org/2000/svg" flood-opacity=".4"/><feComposite xmlns="http://www.w3.org/2000/svg" in2="pf_100_offsetBlur" operator="in" result="pf_100_dropShadow"/><feBlend xmlns="http://www.w3.org/2000/svg" in="SourceGraphic" in2="pf_100_dropShadow"/></filter></defs><path fill="#2B898F" d="M165.685 11.947c74.055 0 84.639 10.557 84.639 84.544v59.251c0 73.986-10.584 84.543-84.639 84.543h-75.37c-74.055 0-84.639-10.557-84.639-84.543V96.491c0-73.987 10.584-84.544 84.639-84.544h75.37z" filter="url(#a)"/><g opacity=".4"><linearGradient id="b" x1=".517" x2=".517" y2="1"><stop offset="0%" stop-color="#fff"/><stop offset="12.5%" stop-opacity=".098" stop-color="#fff"/><stop offset="92.5%" stop-opacity=".098"/><stop offset="100%" stop-opacity=".498"/></linearGradient><path fill="none" stroke="url(#b)" stroke-linecap="round" stroke-linejoin="round" stroke-width="4.077" d="M165.685 11.947c74.055 0 84.639 10.557 84.639 84.544v59.251c0 73.986-10.584 84.543-84.639 84.543h-75.37c-74.055 0-84.639-10.557-84.639-84.543V96.491c0-73.987 10.584-84.544 84.639-84.544h75.37z" vector-effect="non-scaling-stroke"/></g><path fill="#FFF" d="M249.643 83.58L44.234 236.61c11.562 2.311 26.426 3.019 45.523 3.019h75.37c74.055 0 84.639-10.558 84.639-84.544V95.834c0-4.303-.041-8.37-.123-12.254z" opacity=".1"/><g filter="url(#OpdbqWAeI6ZNJ58VXqRJbUmznBJjXJ1z)"><path fill="#CAECEE" d="M46.451 99.032v53.411c0 7.162 1.351 12.315 3.989 15.456 2.513 3.015 7.41 4.561 14.698 4.561h17.307l22.824 16.113 22.827-16.113h62.766c7.288 0 12.185-1.546 14.698-4.561 2.638-3.141 3.989-8.294 3.989-15.456V99.032H46.451z"/><path fill="#FFF" d="M65.138 66.412c-7.287-.091-12.185 1.629-14.698 4.645-2.638 3.141-3.989 8.294-3.989 15.456v2.038c0-7.161 1.351-12.314 3.989-15.455 2.513-3.016 7.411-4.736 14.698-4.645h125.724c7.288 0 12.185 1.629 14.698 4.645 2.638 3.141 3.989 8.294 3.989 15.455v-2.038c0-7.162-1.351-12.315-3.989-15.456-2.513-3.015-7.41-4.645-14.698-4.645H65.138z" opacity=".5"/><defs><filter id="c" width="247.246" height="205.597" x="4.38" y="26.07" filterUnits="userSpaceOnUse"><feGaussianBlur xmlns="http://www.w3.org/2000/svg" stdDeviation="10.766"/></filter></defs><g opacity=".2" filter="url(#c)"><linearGradient id="d" x1=".361" x2=".856" y1=".004" y2=".714" gradientTransform="matrix(163.099 0 0 121.45 46.451 68.142)" gradientUnits="userSpaceOnUse"><stop offset="0%" stop-opacity="0"/><stop offset="67.026%"/><stop offset="100%" stop-opacity="0"/></linearGradient><path fill="url(#d)" d="M65.138 68.145c-7.287-.091-12.184 1.545-14.697 4.56-2.638 3.142-3.99 8.295-3.99 15.457v65.301c0 7.161 1.352 12.314 3.99 15.455 2.513 3.016 7.409 4.562 14.697 4.562h17.307l22.825 16.111 22.826-16.111h62.766c7.288 0 12.184-1.546 14.697-4.562 2.638-3.141 3.99-8.294 3.99-15.455V88.162c0-7.162-1.352-12.315-3.99-15.457-2.513-3.015-7.409-4.56-14.697-4.56H65.138z"/></g><path fill="#DDFBFD" d="M65.138 66.412c-7.287-.091-12.184 1.629-14.697 4.644-2.638 3.141-3.99 8.295-3.99 15.456v63.419l35.994 22.529 22.825 16.112 22.825-16.112 81.454-61.85V86.512c0-7.161-1.352-12.315-3.99-15.456-2.513-3.015-7.409-4.644-14.696-4.644H65.138z"/><path fill="#FBFDFD" d="M110.245 137.409h6.795l2.165-14.186h9.782l-2.166 14.186h6.795l2.165-14.186h8.288l1.046-6.571h-8.363l1.867-11.872h8.586l.971-6.496h-8.587l2.016-13.141h-6.794l-2.016 13.141h-9.856l2.016-13.141h-6.795l-2.016 13.141h-8.288l-.971 6.496h8.288l-1.792 11.872h-8.512l-1.045 6.571h8.587l-2.166 14.186zm9.931-20.757l1.792-11.872h9.856l-1.867 11.872h-9.781z" opacity=".5"/><path fill="#2B898F" d="M112.245 137.409h6.795l2.165-14.186h9.782l-2.166 14.186h6.795l2.165-14.186h8.288l1.046-6.571h-8.363l1.867-11.872h8.586l.971-6.496h-8.587l2.016-13.141h-6.794l-2.016 13.141h-9.856l2.016-13.141h-6.795l-2.016 13.141h-8.288l-.971 6.496h8.288l-1.792 11.872h-8.512l-1.045 6.571h8.587l-2.166 14.186zm9.931-20.757l1.792-11.872h9.856l-1.867 11.872h-9.781z"/></g><defs><filter id="OpdbqWAeI6ZNJ58VXqRJbUmznBJjXJ1z" width="273.246" height="231.597" x="-8.62" y="17.07" filterUnits="userSpaceOnUse"><feGaussianBlur xmlns="http://www.w3.org/2000/svg" in="SourceGraphic" stdDeviation="4.294"/><feOffset xmlns="http://www.w3.org/2000/svg" dy="4" result="pf_100_offsetBlur"/><feFlood xmlns="http://www.w3.org/2000/svg" flood-opacity=".4"/><feComposite xmlns="http://www.w3.org/2000/svg" in2="pf_100_offsetBlur" operator="in" result="pf_100_dropShadow"/><feBlend xmlns="http://www.w3.org/2000/svg" in="SourceGraphic" in2="pf_100_dropShadow"/></filter></defs></svg>

<svg xmlns="http://www.w3.org/2000/svg" style="isolation:isolate" width="256" height="256" viewBox="0 0 256 256">
 <defs>
  <filter id="UNTyMjgEvYoq0ueCcr517ccFQT0gv5DA" width="270.648" height="254.338" x="-7.32" y="2.95" filterUnits="userSpaceOnUse">
   <feGaussianBlur xmlns="http://www.w3.org/2000/svg" in="SourceGraphic" stdDeviation="4.294"/>
   <feOffset xmlns="http://www.w3.org/2000/svg" dx="0" dy="4" result="pf_100_offsetBlur"/>
   <feFlood xmlns="http://www.w3.org/2000/svg" flood-opacity=".4"/>
   <feComposite xmlns="http://www.w3.org/2000/svg" in2="pf_100_offsetBlur" operator="in" result="pf_100_dropShadow"/>
   <feBlend xmlns="http://www.w3.org/2000/svg" in="SourceGraphic" in2="pf_100_dropShadow" mode="normal"/>
  </filter>
 </defs>
 <g filter="url(#UNTyMjgEvYoq0ueCcr517ccFQT0gv5DA)">
  <path fill="#2B898F" d="M 165.685 11.947 C 239.74 11.947 250.324 22.504 250.324 96.491 L 250.324 155.742 C 250.324 229.728 239.74 240.285 165.685 240.285 L 90.315 240.285 C 16.26 240.285 5.676 229.728 5.676 155.742 L 5.676 96.491 C 5.676 22.504 16.26 11.947 90.315 11.947 L 165.685 11.947 Z"/>
 </g>
 <g opacity=".4">
  <linearGradient id="_lgradient_59" x1=".517" x2=".517" y1="0" y2="1">
   <stop offset="0%" style="stop-color:rgb(255,255,255)"/>
   <stop offset="12.5%" stop-opacity=".098" style="stop-color:rgb(255,255,255)"/>
   <stop offset="92.5%" stop-opacity=".098" style="stop-color:rgb(0,0,0)"/>
   <stop offset="100%" stop-opacity=".498" style="stop-color:rgb(0,0,0)"/>
  </linearGradient>
  <path fill="none" stroke="url(#_lgradient_59)" stroke-linecap="round" stroke-linejoin="round" stroke-width="4.077" d="M 165.685 11.947 C 239.74 11.947 250.324 22.504 250.324 96.491 L 250.324 155.742 C 250.324 229.728 239.74 240.285 165.685 240.285 L 90.315 240.285 C 16.26 240.285 5.676 229.728 5.676 155.742 L 5.676 96.491 C 5.676 22.504 16.26 11.947 90.315 11.947 L 165.685 11.947 Z" vector-effect="non-scaling-stroke"/>
 </g>
 <g opacity=".1">
  <path fill="#FFFFFF" d="M 249.643 83.58 L 44.234 236.61 C 55.796 238.921 70.66 239.629 89.757 239.629 L 165.127 239.629 C 239.182 239.629 249.766 229.071 249.766 155.085 L 249.766 95.834 C 249.766 91.531 249.725 87.464 249.643 83.58 L 249.643 83.58 Z"/>
 </g>
 <g filter="url(#OpdbqWAeI6ZNJ58VXqRJbUmznBJjXJ1z)">
  <path fill="#CAECEE" d="M 46.451 99.032 L 46.451 152.443 C 46.451 159.605 47.802 164.758 50.44 167.899 C 52.953 170.914 57.85 172.46 65.138 172.46 L 82.445 172.46 L 105.269 188.573 L 128.096 172.46 L 190.862 172.46 C 198.15 172.46 203.047 170.914 205.56 167.899 C 208.198 164.758 209.549 159.605 209.549 152.443 L 209.549 99.032 L 46.451 99.032 Z"/>
  <g opacity=".5">
   <path fill="#FFFFFF" d="M 65.138 66.412 C 57.851 66.321 52.953 68.041 50.44 71.057 C 47.802 74.198 46.451 79.351 46.451 86.513 L 46.451 88.551 C 46.451 81.39 47.802 76.237 50.44 73.096 C 52.953 70.08 57.851 68.36 65.138 68.451 L 98.227 68.451 L 178.7 68.451 L 190.862 68.451 C 198.15 68.451 203.047 70.08 205.56 73.096 C 208.198 76.237 209.549 81.39 209.549 88.551 L 209.549 86.513 C 209.549 79.351 208.198 74.198 205.56 71.057 C 203.047 68.042 198.15 66.412 190.862 66.412 L 178.7 66.412 L 98.227 66.412 L 65.138 66.412 Z"/>
  </g>
  <defs>
   <filter id="J32b8aogazpviFJPJldeQd2SmkeWO6VH" width="247.246" height="205.597" x="4.38" y="26.07" filterUnits="userSpaceOnUse">
    <feGaussianBlur xmlns="http://www.w3.org/2000/svg" stdDeviation="10.766"/>
   </filter>
  </defs>
  <g opacity=".2" filter="url(#J32b8aogazpviFJPJldeQd2SmkeWO6VH)">
   <linearGradient id="_lgradient_60" x1=".361" x2=".856" y1=".004" y2=".714" gradientTransform="matrix(163.099,0,0,121.45,46.451,68.142)" gradientUnits="userSpaceOnUse">
    <stop offset="0%" stop-opacity="0" style="stop-color:rgb(0,0,0)"/>
    <stop offset="67.026%" style="stop-color:rgb(0,0,0)"/>
    <stop offset="100%" stop-opacity="0" style="stop-color:rgb(0,0,0)"/>
   </linearGradient>
   <path fill="url(#_lgradient_60)" d="M 65.138 68.145 C 57.851 68.054 52.954 69.69 50.441 72.705 C 47.803 75.847 46.451 81 46.451 88.162 L 46.451 150.95 L 46.451 153.463 C 46.451 160.624 47.803 165.777 50.441 168.918 C 52.954 171.934 57.85 173.48 65.138 173.48 L 82.445 173.48 L 105.27 189.591 L 128.096 173.48 L 190.862 173.48 C 198.15 173.48 203.046 171.934 205.559 168.918 C 208.197 165.777 209.549 160.624 209.549 153.463 L 209.549 114.783 L 209.549 88.162 C 209.549 81 208.197 75.847 205.559 72.705 C 203.046 69.69 198.15 68.145 190.862 68.145 L 178.7 68.145 L 98.227 68.145 L 65.138 68.145 Z"/>
  </g>
  <path fill="#DDFBFD" d="M 65.138 66.412 C 57.851 66.321 52.954 68.041 50.441 71.056 C 47.803 74.197 46.451 79.351 46.451 86.512 L 46.451 149.931 L 82.445 172.46 L 105.27 188.572 L 128.095 172.46 L 128.095 172.46 L 209.549 110.61 L 209.549 86.512 C 209.549 79.351 208.197 74.197 205.559 71.056 C 203.046 68.041 198.15 66.412 190.863 66.412 L 178.7 66.412 L 98.227 66.412 L 65.138 66.412 Z"/>
  <g opacity=".5">
   <path fill="#FBFDFD" d="M 110.245 137.409 L 117.04 137.409 L 119.205 123.223 L 128.987 123.223 L 126.821 137.409 L 133.616 137.409 L 135.781 123.223 L 144.069 123.223 L 145.115 116.652 L 136.752 116.652 L 138.619 104.78 L 147.205 104.78 L 148.176 98.284 L 139.589 98.284 L 141.605 85.143 L 134.811 85.143 L 132.795 98.284 L 122.939 98.284 L 124.955 85.143 L 118.16 85.143 L 116.144 98.284 L 107.856 98.284 L 106.885 104.78 L 115.173 104.78 L 113.381 116.652 L 104.869 116.652 L 103.824 123.223 L 112.411 123.223 L 110.245 137.409 Z M 120.176 116.652 L 121.968 104.78 L 131.824 104.78 L 129.957 116.652 L 120.176 116.652 Z"/>
  </g>
  <path fill="#2B898F" d="M 112.245 137.409 L 119.04 137.409 L 121.205 123.223 L 130.987 123.223 L 128.821 137.409 L 135.616 137.409 L 137.781 123.223 L 146.069 123.223 L 147.115 116.652 L 138.752 116.652 L 140.619 104.78 L 149.205 104.78 L 150.176 98.284 L 141.589 98.284 L 143.605 85.143 L 136.811 85.143 L 134.795 98.284 L 124.939 98.284 L 126.955 85.143 L 120.16 85.143 L 118.144 98.284 L 109.856 98.284 L 108.885 104.78 L 117.173 104.78 L 115.381 116.652 L 106.869 116.652 L 105.824 123.223 L 114.411 123.223 L 112.245 137.409 Z M 122.176 116.652 L 123.968 104.78 L 133.824 104.78 L 131.957 116.652 L 122.176 116.652 Z"/>
 </g>
 <defs>
  <filter id="OpdbqWAeI6ZNJ58VXqRJbUmznBJjXJ1z" width="273.246" height="231.597" x="-8.62" y="17.07" filterUnits="userSpaceOnUse">
   <feGaussianBlur xmlns="http://www.w3.org/2000/svg" in="SourceGraphic" stdDeviation="4.294"/>
   <feOffset xmlns="http://www.w3.org/2000/svg" dx="0" dy="4" result="pf_100_offsetBlur"/>
   <feFlood xmlns="http://www.w3.org/2000/svg" flood-opacity=".4"/>
   <feComposite xmlns="http://www.w3.org/2000/svg" in2="pf_100_offsetBlur" operator="in" result="pf_100_dropShadow"/>
   <feBlend xmlns="http://www.w3.org/2000/svg" in="SourceGraphic" in2="pf_100_dropShadow" mode="normal"/>
  </filter>
 </defs>
</svg>
